src/icons/brand/glyph/AppleIcon.svg

<svg width="24" height="24" viewBox="0 0 24 24" fill="none" xmlns="http://www.w3.org/2000/svg">
<path d="M7.96552 21.6144C7.57726 21.3512 7.23251 21.0289 6.94439 20.6566C6.63001 20.271 6.3386 19.8654 6.07101 19.4456C5.44223 18.5128 4.95055 17.4926 4.60989 16.4174C4.19947 15.1665 4 13.9688 4 12.797C4 11.4895 4.2791 10.3485 4.82249 9.39068C5.22472 8.64112 5.82392 8.01398 6.54628 7.5734C7.24401 7.132 8.05665 6.89046 8.87749 6.87381C9.16478 6.87381 9.47672 6.91544 9.80505 6.99874C10.0431 7.06536 10.3304 7.17363 10.6834 7.3069C11.1348 7.48179 11.3811 7.59007 11.4632 7.61506C11.7258 7.715 11.9474 7.75663 12.1198 7.75663C12.2512 7.75663 12.44 7.715 12.6493 7.64836C12.7683 7.60672 12.994 7.53176 13.3142 7.39017C13.631 7.27358 13.8822 7.17363 14.0817 7.09868C14.3854 7.00707 14.6792 6.92378 14.9435 6.88214C15.2637 6.83217 15.5814 6.81552 15.8859 6.84051C16.4687 6.88214 17.0022 7.00707 17.4783 7.1903C18.3156 7.53176 18.9912 8.06479 19.4952 8.82269C19.2817 8.95595 19.0847 9.11086 18.9 9.28076C18.5003 9.63889 18.1613 10.0636 17.8904 10.5342C17.5374 11.1755 17.3569 11.9 17.3618 12.633C17.3741 13.5349 17.5998 14.3278 18.0513 15.0149C18.369 15.5146 18.7933 15.9427 19.3105 16.2942C19.565 16.4691 19.7882 16.5898 20 16.6689C19.9015 16.9813 19.7931 17.2852 19.6676 17.5851C19.3827 18.2572 19.0437 18.901 18.6415 19.5089C18.2869 20.0336 18.0078 20.4251 17.796 20.6833C17.466 21.083 17.1475 21.3828 16.8274 21.5969C16.4744 21.8342 16.0599 21.96 15.6355 21.96C15.3482 21.9725 15.0609 21.935 14.7868 21.8542C14.5487 21.7751 14.314 21.686 14.0841 21.5852C13.8436 21.4736 13.5949 21.3787 13.3413 21.302C13.0293 21.2188 12.7092 21.1788 12.3858 21.1796C12.0574 21.1796 11.7373 21.2213 11.4336 21.3004C11.1791 21.3737 10.9329 21.4636 10.6891 21.5711C10.3443 21.7168 10.1186 21.8126 9.98726 21.8542C9.7213 21.9342 9.44878 21.9825 9.17461 22C8.74776 22 8.35049 21.8751 7.9655 21.6144L7.96552 21.6144ZM13.5916 6.24002C13.0335 6.52319 12.5032 6.64312 11.9721 6.60315C11.89 6.06512 11.9721 5.51213 12.1937 4.90664C12.3907 4.39028 12.6534 3.92387 13.0146 3.50746C13.3922 3.07437 13.8436 2.71626 14.3526 2.45807C14.8943 2.1749 15.4115 2.02499 15.904 2C15.9696 2.56633 15.904 3.12434 15.6988 3.72399C15.5116 4.25702 15.2325 4.74839 14.8779 5.18979C14.5208 5.62288 14.0776 5.98099 13.5916 6.24002Z" fill="currentColor"/>
</svg>

<svg xmlns="http://www.w3.org/2000/svg" width="24" height="24" fill="currentColor" viewBox="0 0 24 24">
  <path d="M7.966 21.614a4.44 4.44 0 0 1-1.022-.957 12.833 12.833 0 0 1-.873-1.211 11.786 11.786 0 0 1-1.461-3.029C4.2 15.167 4 13.97 4 12.797c0-1.308.28-2.449.822-3.406a4.784 4.784 0 0 1 1.724-1.818 4.548 4.548 0 0 1 2.331-.7c.288 0 .6.042.928.126.238.066.525.175.878.308.452.175.698.283.78.308.263.1.484.142.657.142.131 0 .32-.042.53-.109.118-.041.344-.116.664-.258.317-.116.568-.216.768-.291.303-.092.597-.175.861-.217.32-.05.638-.066.943-.041a5.52 5.52 0 0 1 1.592.35 4.307 4.307 0 0 1 2.017 1.632c-.213.133-.41.288-.595.458a5.09 5.09 0 0 0-1.01 1.253 4.296 4.296 0 0 0-.528 2.099c.012.902.238 1.695.69 2.382.317.5.741.928 1.259 1.28.254.174.477.295.689.374-.099.312-.207.616-.332.916a11.876 11.876 0 0 1-1.026 1.924 17 17 0 0 1-.846 1.174c-.33.4-.648.7-.969.914a2.135 2.135 0 0 1-1.192.363 2.606 2.606 0 0 1-.848-.106 8.14 8.14 0 0 1-.703-.269 5.658 5.658 0 0 0-.743-.283 3.78 3.78 0 0 0-1.908-.002 5.85 5.85 0 0 0-.744.271c-.345.146-.57.242-.702.283a3.62 3.62 0 0 1-.812.146c-.427 0-.825-.125-1.21-.386ZM13.592 6.24c-.559.283-1.089.403-1.62.363-.082-.538 0-1.09.222-1.696a4.6 4.6 0 0 1 .82-1.4 4.448 4.448 0 0 1 1.339-1.049c.541-.283 1.059-.433 1.551-.458.066.566 0 1.124-.205 1.724a4.966 4.966 0 0 1-.821 1.466 4.29 4.29 0 0 1-1.286 1.05Z"/>
</svg>
